X: 835
T: The Flaxdresser
N:"Collected by J.O'Neill"
B:O'Neill's 835
Z:Transcribed by Dan G. Petersen, dangp@post6.tele.dk
M:6/8
L:1/8
K:G
d/c/|BAG AGE|DGA BAG|BAG dcB|BAA AGA|
BAG AGE|DGA BAG|Bdg dBG|AGG G2:|
B|GBd efg|dBG AGE|GBd efg|fdd def|
gfe dcB|AGA BGE|DcB AGA|BGG G2:|
(B/c/|d2)(e/f/ g)fe|dBG GED|DEG GAB|BAA A2(B/c/|
d2)(e/f/ g)fe|dBG AGE|DcB AGA|BGG G2:|


